X:272
T: MAEDCHEN MEINER SEELEN
N: E1414A
O: Europa, Mitteleuropa, Deutschland, Hessen, Odenwald; Taunus
R: Staende -, Soldaten - Lied, Krieg, Abschied
M: 3/8
L: 1/16
K: G
 | D2G2G2 | G2B2d2 | B2A2A2 |
A2B2c2 | d4c2 | B4z2 |
G4B2 | B4d2 | d2c2c2 |
A4c2 | c2d2e2 | e2d2c2 |
B4Bc | d4dc | B4z2 |
G4B2 | B4d2 | d2c2c2 |
A4c2 | c2d2e2 | e2d2c2 |
B4Bc | d4dc | B4z2

@@@ Tune index: 4956
